icons/evolvere-blue-folders-flat-vivid-dark-fallback/mimetypes/64/application-x-flash-video.svg

<?xml version="1.0" encoding="UTF-8" standalone="no"?>
<!-- Created with Inkscape (http://www.inkscape.org/) -->

<svg
   xmlns:dc="http://purl.org/dc/elements/1.1/"
   xmlns:cc="http://creativecommons.org/ns#"
   xmlns:rdf="http://www.w3.org/1999/02/22-rdf-syntax-ns#"
   xmlns:svg="http://www.w3.org/2000/svg"
   xmlns="http://www.w3.org/2000/svg"
   xmlns:xlink="http://www.w3.org/1999/xlink"
   xmlns:sodipodi="http://sodipodi.sourceforge.net/DTD/sodipodi-0.dtd"
   xmlns:inkscape="http://www.inkscape.org/namespaces/inkscape"
   version="1.1"
   width="64"
   height="64"
   id="svg13094"
   inkscape:version="0.48.4 r9939"
   sodipodi:docname="application-x-flash-video.svg">
  <sodipodi:namedview
     pagecolor="#ffffff"
     bordercolor="#666666"
     borderopacity="1"
     objecttolerance="10"
     gridtolerance="10"
     guidetolerance="10"
     inkscape:pageopacity="0"
     inkscape:pageshadow="2"
     inkscape:window-width="1920"
     inkscape:window-height="1022"
     id="namedview49"
     showgrid="true"
     inkscape:zoom="10.429825"
     inkscape:cx="40.666627"
     inkscape:cy="30.088821"
     inkscape:window-x="-5"
     inkscape:window-y="23"
     inkscape:window-maximized="1"
     inkscape:current-layer="svg13094"
     inkscape:snap-bbox="true"
     inkscape:bbox-paths="true"
     inkscape:bbox-nodes="true"
     inkscape:snap-bbox-edge-midpoints="true"
     inkscape:snap-bbox-midpoints="true"
     inkscape:snap-nodes="true"
     inkscape:object-paths="true"
     inkscape:snap-intersection-paths="true"
     inkscape:object-nodes="true"
     inkscape:snap-smooth-nodes="true"
     inkscape:snap-midpoints="true"
     inkscape:snap-object-midpoints="true"
     inkscape:snap-center="true">
    <inkscape:grid
       type="xygrid"
       id="grid3064" />
  </sodipodi:namedview>
  <defs
     id="defs11">
    <radialGradient
       cx="60.561817"
       cy="21.045019"
       r="2"
       fx="59.603962"
       fy="21.240686"
       id="radialGradient3811-3"
       xlink:href="#radialGradient3996"
       gradientUnits="userSpaceOnUse"
       gradientTransform="matrix(0,19.318815,-3.4300596,0,132.74749,-1136.9636)" />
    <radialGradient
       cx="48.30785"
       cy="47.141338"
       r="14.16129"
       id="radialGradient3996"
       gradientUnits="userSpaceOnUse"
       gradientTransform="matrix(0.93962333,0.77477937,-1.7975241,2.1799696,88.130548,-93.365748)">
      <stop
         id="stop3954"
         style="stop-color:#000000;stop-opacity:0.22264875"
         offset="0" />
      <stop
         id="stop3958"
         style="stop-color:#000000;stop-opacity:0.0678183"
         offset="0.5" />
      <stop
         id="stop3956"
         style="stop-color:#000000;stop-opacity:0.02431222"
         offset="1" />
    </radialGradient>
    <linearGradient
       x1="45"
       y1="52"
       x2="73"
       y2="4"
       id="linearGradient4308"
       gradientUnits="userSpaceOnUse">
      <stop
         id="stop4304"
         style="stop-color:#000000;stop-opacity:0.10677083"
         offset="0" />
      <stop
         id="stop4306"
         style="stop-color:#000000;stop-opacity:0"
         offset="1" />
    </linearGradient>
    <linearGradient
       x1="48.917568"
       y1="46.213669"
       x2="32.669781"
       y2="24"
       id="linearGradient4259"
       gradientUnits="userSpaceOnUse">
      <stop
         id="stop3988"
         style="stop-color:#ffffff;stop-opacity:0.52975047"
         offset="0" />
      <stop
         id="stop3990"
         style="stop-color:#ffffff;stop-opacity:0"
         offset="1" />
    </linearGradient>
    <radialGradient
       cx="48.30785"
       cy="47.141338"
       r="14.16129"
       id="radialGradient3220"
       xlink:href="#radialGradient3996"
       gradientUnits="userSpaceOnUse"
       gradientTransform="matrix(0.93962333,0.77477937,-1.7975241,2.1799696,88.130548,-93.365748)" />
  </defs>
  <metadata
     id="metadata13099">
    <rdf:RDF>
      <cc:Work
         rdf:about="">
        <dc:format>image/svg+xml</dc:format>
        <dc:type
           rdf:resource="http://purl.org/dc/dcmitype/StillImage" />
        <dc:title />
      </cc:Work>
    </rdf:RDF>
  </metadata>
  <path
     d="M 4,0 64,0 64,62 4,62 z"
     id="path3960"
     style="fill:#c71f1f;fill-opacity:1;fill-rule:nonzero" />
  <path
     style="fill:#300500;fill-rule:nonzero;fill-opacity:0.22456141"
     d="M 60 2 L 60 33 L 35.6875 62 L 64 62 L 64 37 L 64 6 L 60 2 z "
     id="path3900" />
  <path
     d="M 0,2 60,2 60,33 34,64 0,64 z"
     id="path4257"
     style="fill:url(#linearGradient4259);fill-rule:nonzero" />
  <path
     d="M 0,2 60,2 60,33 34,64 0,64 z"
     id="path3982"
     style="fill:#f33f47;fill-rule:nonzero;color:#000000;fill-opacity:1;stroke:none;stroke-width:1;marker:none;visibility:visible;display:inline;overflow:visible;enable-background:accumulate" />
  <path
     d="M 34,64 60,33 c -2.328567,2.776369 -4.36141,3 -11,3 H 37 v 15 c 0,6.644068 0.04437,9.370179 -3,13 z"
     id="path4278"
     style="fill:#cf1f2f;fill-rule:nonzero;fill-opacity:1" />
  <path
     style="color:#000000;fill:#f4eeee;fill-opacity:1;fill-rule:nonzero;stroke:none;stroke-width:1;marker:none;visibility:visible;display:inline;overflow:visible;enable-background:accumulate"
     id="path3251"
     inkscape:connector-curvature="0"
     d="m 24.199817,7.02105 0,4.828216 c -4.820379,0.08446 -6.005049,4.785592 -6.005049,4.785592 l 3.63571,0 0,4.828137 -5.637393,0 C 12.80248,31.92335 5,30.991869 5,30.991869 l 0,-4.82814 c 0,0 4.9511549,0.918626 7.475673,-8.300739 C 15.633615,6.3306594 24.199817,7.02105 24.199817,7.02105 z" />
</svg>

<svg xmlns="http://www.w3.org/2000/svg" viewBox="0 0 64 64"><defs><linearGradient x1="48.918" y1="46.21" x2="32.67" y2="24" id="0" gradientUnits="userSpaceOnUse"><stop stop-color="#fff" stop-opacity=".53"/><stop offset="1" stop-color="#fff" stop-opacity="0"/></linearGradient></defs><path d="m4 0h60v62h-60z" fill="#c71f1f"/><path d="m60 2v31l-24.313 29h28.313v-25-31l-4-4" fill="#300500" fill-opacity=".225"/><path d="m0 2h60v31l-26 31h-34z" fill="url(#0)"/><path d="m0 2h60v31l-26 31h-34z" fill="#f33f47" color="#000"/><path d="m34 64l26-31c-2.329 2.776-4.361 3-11 3h-12v15c0 6.644.044 9.37-3 13" fill="#cf1f2f"/><path d="m24.2 7.02v4.828c-4.82.084-6.01 4.786-6.01 4.786h3.636v4.828h-5.637c-3.391 10.46-11.193 9.529-11.193 9.529v-4.828c0 0 4.951.919 7.476-8.301 3.158-11.532 11.724-10.842 11.724-10.842" fill="#f4eeee" color="#000"/></svg>
